svg/300/outlined/album.svg

<svg xmlns="http://www.w3.org/2000/svg" width="48" height="48" viewBox="0 -960 960 960"><path d="M480-331.77q63.076 0 107.884-42.885Q632.691-417.539 632.691-480q0-63.692-44.5-108.191-44.499-44.5-108.191-44.5-62.461 0-105.345 44.807Q331.77-543.076 331.77-480q0 62.461 42.885 105.345Q417.539-331.77 480-331.77ZM480-440q-17 0-28.5-11.5T440-480q0-17 11.5-28.5T480-520q17 0 28.5 11.5T520-480q0 17-11.5 28.5T480-440Zm.067 339.999q-78.221 0-147.397-29.92-69.176-29.92-120.989-81.71-51.814-51.791-81.747-120.936-29.933-69.146-29.933-147.366 0-78.836 29.92-148.204 29.92-69.369 81.71-120.682 51.791-51.314 120.936-81.247 69.146-29.933 147.366-29.933 78.836 0 148.204 29.92 69.369 29.92 120.682 81.21 51.314 51.291 81.247 120.629 29.933 69.337 29.933 148.173 0 78.221-29.92 147.397-29.92 69.176-81.21 120.989-51.291 51.814-120.629 81.747-69.337 29.933-148.173 29.933ZM480-145.385q139.692 0 237.154-97.769Q814.615-340.923 814.615-480q0-139.692-97.461-237.154Q619.692-814.615 480-814.615q-139.077 0-236.846 97.461Q145.385-619.692 145.385-480q0 139.077 97.769 236.846T480-145.385ZM480-480Z"/></svg>

<svg xmlns="http://www.w3.org/2000/svg" width="48" height="48" viewBox="0 -960 960 960"><path d="M480-331.77q63.08 0 107.88-42.88 44.81-42.89 44.81-105.35 0-63.69-44.5-108.19T480-632.69q-62.46 0-105.35 44.81-42.88 44.8-42.88 107.88 0 62.46 42.88 105.35 42.89 42.88 105.35 42.88ZM480-440q-17 0-28.5-11.5T440-480q0-17 11.5-28.5T480-520q17 0 28.5 11.5T520-480q0 17-11.5 28.5T480-440Zm.07 340q-78.22 0-147.4-29.92t-120.99-81.71q-51.81-51.79-81.75-120.94Q100-401.71 100-479.93q0-78.84 29.92-148.21t81.71-120.68q51.79-51.31 120.94-81.25Q401.71-860 479.93-860q78.84 0 148.21 29.92t120.68 81.21q51.31 51.29 81.25 120.63Q860-558.9 860-480.07q0 78.22-29.92 147.4t-81.21 120.99q-51.29 51.81-120.63 81.75Q558.9-100 480.07-100Zm-.07-45.39q139.69 0 237.15-97.76 97.46-97.77 97.46-236.85 0-139.69-97.46-237.15-97.46-97.46-237.15-97.46-139.08 0-236.85 97.46-97.76 97.46-97.76 237.15 0 139.08 97.76 236.85 97.77 97.76 236.85 97.76ZM480-480Z"/></svg>
